!!!OTL:Abendlied.
!!!OTL-incipit:DIE WELT TUT IHRE AUGEN ZU
!!!COM: A. Klauwell
!!!ARE: Europa, Mitteleuropa, Deutschland
!!!SCT: F0348
!!!TXL: @@DE
!!!YEM: Copyright 1995, estate of Helmut Schaffrath.
**kern	**text
*ICvox	*
*clefG2	*
*M6/8	*
*k[]	*
*C:	*
!LO:TX:a:t=Sanft und zart	!
{8e	Die
=1	=1
4g	Welt
8d	thut
4e	ih-
8cc/	-re
=2	=2
4ee	Au-
8b/	-gen
4cc/}	ʒu,
{8e	und
=3	=3
4g	Al-
8d	-les
4g	wird
8d	ſo
=4	=4
[4.e	ſtill,
8e]	.
8r}	.
{8e	auch
=5	=5
4g	ich
8d	bin
4e	mü-
8cc/	-de
=6	=6
4ee	und
8b/	ʒur
4cc/}	Ruh'
{8e	ich
=7	=7
4g	auch
8d	nun
4g	ge-
8d	-hen
=8	=8
[4.c	will.
8c]	.
8r}	.
{16.cL	Jch
32dJ	.
=9	=9
4e	leg'
8f	im
4e	ſtil-
8g#	-len
=10	=10
4a	Käm-
8b/	-mer-
4a}	-lein
{8cc	mich
=11	=11
(8ee/L	in
8bJ)	.
8g	mein
(8bL	Bettchen
8f#J)	.
8g	.
=12	=12
8e	warm,
8r	.
8r	.
4r}	.
{8g	und
=13	=13
4g	En-
8d	-gel
4e	ſol-
8cc/	-len
=14	=14
4cc/	Wäch-
8g	-ter
4a}	ſein
{8a	vor
=15	=15
4a	je-
8g	-dem
4a	Trug
8b/	und
=16	=16
4cc/	Harm.
8cc/;	.
4r}	.
==	==
!!!AGN: Jugend - Lied, Lob - Lied, religioes, Tageszeiten, Abend
!!!ONB: ESAC (Essen Associative Code) Database: FINK
!!!AMT: compound duple
!!!AIN: vox
!!!EED: Helmut Schaffrath
!!!EEV: 1.0
!!Text: E. M. Arndt
!!!GTL: Jugendlieder
!!!source: Musikalischer Hausschatz der Deutschen. Eine Sammlung von über 1000 Liedern und Gesängen mit Singstimmen und Klavierbegleitung. Leipzig, Litterarisches Verlags-Haus.
!!!page: 204
!!!ENC: Anna Maria Matuszewska
!!!EEV: 2025/03/14
*-	*-
